X:97
T:Ton y Botel / Ebenezer
M:4/4
L:1/8
Q:80
C:Thomas John Williams 1869 - 1944
R:Hymn
K:G
E2 (3EFG F2 E2 | F2 (3FGA G>F E2 | B2 (3ABc B>A G2|
A>G F2 E4 :|| B2 (3GAB A2 A2 | G2 (3EFG F2 F2|
E2 (3EFG A2 A2 | G2 (3AGA B4 | E2 3EFG F2 E2 |
F2 (3FGA G>F E2 | B2 (3ABc B>A G2|
A>G F2 E4 ||
